material/.icons/material/unity.svg

<svg xmlns="http://www.w3.org/2000/svg" viewBox="0 0 24 24"><path d="M10.11 17H7.5l-4.91-5L7.5 7h2.61l1.31-2.26L18.21 3l1.87 6.74L18.77 12l1.31 2.26L18.21 21l-6.79-1.74L10.11 17m.14-.25l5.13 1.38L12.42 13H6.5l3.75 3.75m6.87.38L18.5 12l-1.38-5.13L14.15 12l2.97 5.13m-6.87-9.88L6.5 11h5.92l2.96-5.13-5.13 1.38z"/></svg>

<?xml version="1.0" encoding="UTF-8"?><!DOCTYPE svg PUBLIC "-//W3C//DTD SVG 1.1//EN" "http://www.w3.org/Graphics/SVG/1.1/DTD/svg11.dtd"><svg xmlns="http://www.w3.org/2000/svg" xmlns:xlink="http://www.w3.org/1999/xlink" version="1.1" id="mdi-unity" width="24" height="24" viewBox="0 0 24 24"><path d="M10.11,17H7.5L2.59,12L7.5,7H10.11L11.42,4.74L18.21,3L20.08,9.74L18.77,12L20.08,14.26L18.21,21L11.42,19.26L10.11,17M10.25,16.75L15.38,18.13L12.42,13H6.5L10.25,16.75M17.12,17.13L18.5,12L17.12,6.87L14.15,12L17.12,17.13M10.25,7.25L6.5,11H12.42L15.38,5.87L10.25,7.25Z" /></svg>
